X: 4583
T: Bouffard's
R: waltz
M: 3/4
K: Dmajor
|:"D" F4 E2|"D" D4 F2|"D" A4 F2|"D" A6|"G" B4 c2|"G" d2 c2 B2|"D" A2 B2 A2|"A" G2 F2 E2|
"D" F4 E2|"D" D4 F2|"F#m" A4 F2|"F#m" A6|"G" B4 c2|"A" d2 e2 c2|"D" d6|"D" d6:|
|:"D" F2 A2 d2|"D" F2 A2 d2|"G" G2 B2 d2|"G" G2 B2 d2|"A" A2 c2 e2|"A" A2 c2 e2|"D" d3 "G" c de|
"D" f2 d2 A2|"D" F2 A2 d2|"D" F2 A2 d2|"G" G2 B2 d2|"G" G2 B2 d2|"A" A2 c2 e2|"A" A2 c2 e2|"D" d3 e dc|"D" d6:|

